src/images/footer-logo.svg

<svg xmlns="http://www.w3.org/2000/svg" fill="none" viewBox="0 0 1323 288"><g filter="url(#a)"><path d="M97.194 199.266 125.544 11.4h57.834V276h-39.312V86.244L115.338 276H76.026L45.03 88.89V276H8.742V11.4h57.834l30.618 187.866Zm154.608 15.876c0 9.576 1.89 16.38 5.67 20.412 4.032 3.78 9.324 5.67 15.876 5.67s11.718-1.89 15.498-5.67c4.032-4.032 6.048-10.836 6.048-20.412V72.258c0-9.576-2.016-16.254-6.048-20.034-3.78-4.032-8.946-6.048-15.498-6.048s-11.844 2.016-15.876 6.048c-3.78 3.78-5.67 10.458-5.67 20.034v142.884Zm-41.58-140.238c0-21.42 5.418-37.8 16.254-49.14 10.836-11.592 26.46-17.388 46.872-17.388s36.036 5.796 46.872 17.388c10.836 11.34 16.254 27.72 16.254 49.14v137.592c0 21.42-5.418 37.926-16.254 49.518-10.836 11.34-26.46 17.01-46.872 17.01s-36.036-5.67-46.872-17.01c-10.836-11.592-16.254-28.098-16.254-49.518V74.904Zm191.451 140.238c0 9.576 1.89 16.38 5.67 20.412 4.032 3.78 9.324 5.67 15.876 5.67s11.718-1.89 15.498-5.67c4.032-4.032 6.048-10.836 6.048-20.412V72.258c0-9.576-2.016-16.254-6.048-20.034-3.78-4.032-8.946-6.048-15.498-6.048s-11.844 2.016-15.876 6.048c-3.78 3.78-5.67 10.458-5.67 20.034v142.884Zm-41.58-140.238c0-21.42 5.418-37.8 16.254-49.14 10.836-11.592 26.46-17.388 46.872-17.388s36.036 5.796 46.872 17.388c10.836 11.34 16.254 27.72 16.254 49.14v137.592c0 21.42-5.418 37.926-16.254 49.518-10.836 11.34-26.46 17.01-46.872 17.01s-36.036-5.67-46.872-17.01c-10.836-11.592-16.254-28.098-16.254-49.518V74.904ZM513.366 11.4h65.772c20.916 0 36.414 5.544 46.494 16.632 10.332 11.088 15.498 27.342 15.498 48.762v133.812c0 21.42-5.166 37.674-15.498 48.762C615.552 270.456 600.054 276 579.138 276h-65.772V11.4Zm41.58 37.8v189h23.436c6.552 0 11.718-1.89 15.498-5.67 3.78-3.78 5.67-10.458 5.67-20.034V74.904c0-9.576-1.89-16.254-5.67-20.034-3.78-3.78-8.946-5.67-15.498-5.67h-23.436ZM726.36 11.4h65.772c20.916 0 36.414 5.544 46.494 16.632 10.332 11.088 15.498 27.342 15.498 48.762v133.812c0 21.42-5.166 37.674-15.498 48.762C828.546 270.456 813.048 276 792.132 276H726.36V11.4Zm41.58 37.8v189h23.436c6.552 0 11.718-1.89 15.498-5.67 3.78-3.78 5.67-10.458 5.67-20.034V74.904c0-9.576-1.89-16.254-5.67-20.034-3.78-3.78-8.946-5.67-15.498-5.67H767.94Zm152.411-37.8v204.12c0 9.576 1.89 16.254 5.67 20.034 4.032 3.78 9.324 5.67 15.876 5.67s11.718-1.89 15.498-5.67c4.032-3.78 6.048-10.458 6.048-20.034V11.4h39.317v201.474c0 21.42-5.297 37.926-15.881 49.518-10.332 11.34-25.704 17.01-46.116 17.01s-35.91-5.67-46.494-17.01c-10.332-11.592-15.498-28.098-15.498-49.518V11.4h41.58Zm231.499 165.942v35.154c0 21.42-5.29 37.926-15.87 49.518-10.34 11.34-25.71 17.01-46.12 17.01-20.41 0-35.91-5.67-46.49-17.01-10.34-11.592-15.5-28.098-15.5-49.518V74.904c0-21.42 5.16-37.8 15.5-49.14 10.58-11.592 26.08-17.388 46.49-17.388 20.41 0 35.78 5.796 46.12 17.388 10.58 11.34 15.87 27.72 15.87 49.14v25.704h-39.31v-28.35c0-9.576-2.02-16.254-6.05-20.034-3.78-4.032-8.94-6.048-15.5-6.048-6.55 0-11.84 2.016-15.87 6.048-3.78 3.78-5.67 10.458-5.67 20.034v142.884c0 9.576 1.89 16.254 5.67 20.034 4.03 3.78 9.32 5.67 15.87 5.67 6.56 0 11.72-1.89 15.5-5.67 4.03-3.78 6.05-10.458 6.05-20.034v-37.8h39.31Zm79.66-6.804-12.85 24.192V276h-41.58V11.4h41.58v115.29l55.19-115.29h40.82l-57.83 117.936L1314.67 276h-42.71l-40.45-105.462Z" fill="#000"/></g><defs><filter id="a" width="1321.93" height="287.026" x=".742" y=".376" color-interpolation-filters="sRGB" filterUnits="userSpaceOnUse"><feFlood flood-opacity="0" result="BackgroundImageFix"/><feBlend in="SourceGraphic" in2="BackgroundImageFix" mode="normal" result="shape"/><feTurbulence baseFrequency="0.25 0.25" numOctaves="3" seed="8873" type="fractalNoise"/><feDisplacementMap width="100%" height="100%" in="shape" result="displacedImage" scale="16" xChannelSelector="R" yChannelSelector="G"/><feMerge result="effect1_texture_360_1025"><feMergeNode in="displacedImage"/></feMerge></filter></defs></svg>

<svg width="1323" height="288" viewBox="0 0 1323 288" fill="none" xmlns="http://www.w3.org/2000/svg">
<g filter="url(#filter0_g_360_1025)">
<path d="M97.194 199.266L125.544 11.4H183.378V276H144.066V86.244L115.338 276H76.026L45.03 88.89V276H8.742V11.4H66.576L97.194 199.266ZM251.802 215.142C251.802 224.718 253.692 231.522 257.472 235.554C261.504 239.334 266.796 241.224 273.348 241.224C279.9 241.224 285.066 239.334 288.846 235.554C292.878 231.522 294.894 224.718 294.894 215.142V72.258C294.894 62.682 292.878 56.004 288.846 52.224C285.066 48.192 279.9 46.176 273.348 46.176C266.796 46.176 261.504 48.192 257.472 52.224C253.692 56.004 251.802 62.682 251.802 72.258V215.142ZM210.222 74.904C210.222 53.484 215.64 37.104 226.476 25.764C237.312 14.172 252.936 8.376 273.348 8.376C293.76 8.376 309.384 14.172 320.22 25.764C331.056 37.104 336.474 53.484 336.474 74.904V212.496C336.474 233.916 331.056 250.422 320.22 262.014C309.384 273.354 293.76 279.024 273.348 279.024C252.936 279.024 237.312 273.354 226.476 262.014C215.64 250.422 210.222 233.916 210.222 212.496V74.904ZM401.673 215.142C401.673 224.718 403.563 231.522 407.343 235.554C411.375 239.334 416.667 241.224 423.219 241.224C429.771 241.224 434.937 239.334 438.717 235.554C442.749 231.522 444.765 224.718 444.765 215.142V72.258C444.765 62.682 442.749 56.004 438.717 52.224C434.937 48.192 429.771 46.176 423.219 46.176C416.667 46.176 411.375 48.192 407.343 52.224C403.563 56.004 401.673 62.682 401.673 72.258V215.142ZM360.093 74.904C360.093 53.484 365.511 37.104 376.347 25.764C387.183 14.172 402.807 8.376 423.219 8.376C443.631 8.376 459.255 14.172 470.091 25.764C480.927 37.104 486.345 53.484 486.345 74.904V212.496C486.345 233.916 480.927 250.422 470.091 262.014C459.255 273.354 443.631 279.024 423.219 279.024C402.807 279.024 387.183 273.354 376.347 262.014C365.511 250.422 360.093 233.916 360.093 212.496V74.904ZM513.366 11.4H579.138C600.054 11.4 615.552 16.944 625.632 28.032C635.964 39.12 641.13 55.374 641.13 76.794V210.606C641.13 232.026 635.964 248.28 625.632 259.368C615.552 270.456 600.054 276 579.138 276H513.366V11.4ZM554.946 49.2V238.2H578.382C584.934 238.2 590.1 236.31 593.88 232.53C597.66 228.75 599.55 222.072 599.55 212.496V74.904C599.55 65.328 597.66 58.65 593.88 54.87C590.1 51.09 584.934 49.2 578.382 49.2H554.946ZM726.36 11.4H792.132C813.048 11.4 828.546 16.944 838.626 28.032C848.958 39.12 854.124 55.374 854.124 76.794V210.606C854.124 232.026 848.958 248.28 838.626 259.368C828.546 270.456 813.048 276 792.132 276H726.36V11.4ZM767.94 49.2V238.2H791.376C797.928 238.2 803.094 236.31 806.874 232.53C810.654 228.75 812.544 222.072 812.544 212.496V74.904C812.544 65.328 810.654 58.65 806.874 54.87C803.094 51.09 797.928 49.2 791.376 49.2H767.94ZM920.351 11.4V215.52C920.351 225.096 922.241 231.774 926.021 235.554C930.053 239.334 935.345 241.224 941.897 241.224C948.449 241.224 953.615 239.334 957.395 235.554C961.427 231.774 963.443 225.096 963.443 215.52V11.4H1002.76V212.874C1002.76 234.294 997.463 250.8 986.879 262.392C976.547 273.732 961.175 279.402 940.763 279.402C920.351 279.402 904.853 273.732 894.269 262.392C883.937 250.8 878.771 234.294 878.771 212.874V11.4H920.351ZM1151.85 177.342V212.496C1151.85 233.916 1146.56 250.422 1135.98 262.014C1125.64 273.354 1110.27 279.024 1089.86 279.024C1069.45 279.024 1053.95 273.354 1043.37 262.014C1033.03 250.422 1027.87 233.916 1027.87 212.496V74.904C1027.87 53.484 1033.03 37.104 1043.37 25.764C1053.95 14.172 1069.45 8.376 1089.86 8.376C1110.27 8.376 1125.64 14.172 1135.98 25.764C1146.56 37.104 1151.85 53.484 1151.85 74.904V100.608H1112.54V72.258C1112.54 62.682 1110.52 56.004 1106.49 52.224C1102.71 48.192 1097.55 46.176 1090.99 46.176C1084.44 46.176 1079.15 48.192 1075.12 52.224C1071.34 56.004 1069.45 62.682 1069.45 72.258V215.142C1069.45 224.718 1071.34 231.396 1075.12 235.176C1079.15 238.956 1084.44 240.846 1090.99 240.846C1097.55 240.846 1102.71 238.956 1106.49 235.176C1110.52 231.396 1112.54 224.718 1112.54 215.142V177.342H1151.85ZM1231.51 170.538L1218.66 194.73V276H1177.08V11.4H1218.66V126.69L1273.85 11.4H1314.67L1256.84 129.336L1314.67 276H1271.96L1231.51 170.538Z" fill="black"/>
</g>
<defs>
<filter id="filter0_g_360_1025" x="0.742188" y="0.375977" width="1321.93" height="287.026" filterUnits="userSpaceOnUse" color-interpolation-filters="sRGB">
<feFlood flood-opacity="0" result="BackgroundImageFix"/>
<feBlend mode="normal" in="SourceGraphic" in2="BackgroundImageFix" result="shape"/>
<feTurbulence type="fractalNoise" baseFrequency="0.25 0.25" numOctaves="3" seed="8873" />
<feDisplacementMap in="shape" scale="16" xChannelSelector="R" yChannelSelector="G" result="displacedImage" width="100%" height="100%" />
<feMerge result="effect1_texture_360_1025">
<feMergeNode in="displacedImage"/>
</feMerge>
</filter>
</defs>
</svg>
